X: 227
T: The Templehouse
M:4/4
L:1/8
R:reel
K:G
"Em"EFGA "(Bm)"BFAF|"D"D2FD ADFD|"Em"EFGA BE~E2|"Em(Cmaj7)"dBAc "Em"BEED:|
"G(Em)"g2ef gfeg|"D"f2df afdf|"G(Em)"g2ef gfed|"Em(Cmaj7)"B2 Ac "Em"BEED|
"G(Em)"g2ef gfeg|"D"f2df afdf|"C(Em)"edef gfed|"Em(Cmaj7)"B2Ac "Em"BEED|]


